X:1595
T:Dooish
O:england
M:6/8
L:1/8
C:Tommy Peoples
S:Tommy Peoples
R:Jig
D:The Quiet Glen
K:GDor
dcA GFD|~F2F FGA|d2A GAc|~d3 g2a|bga gfd|\
(3fff d cAF|Gdc AGF|DGG G3::g2a gfd|~f3 ~a2f|\
gfd ~c2d|cAG FGA|~g3 a/g/fd|(3fff d (3ggg d|\
(3fff d AGF|DGG G2::~B2d AcA|GFD FGA|BdB AcA|\
GBd g2a|bgg aff|g/a/bg fdc|(3fff d cAF|DG^F G2:|


